lib/svgs/turn-right.svg

<?xml version="1.0" encoding="UTF-8"?>
<svg width="16px" height="16px" viewBox="0 0 16 16" version="1.1" xmlns="http://www.w3.org/2000/svg" xmlns:xlink="http://www.w3.org/1999/xlink">
    <!-- Generator: sketchtool 51.3 (57544) - http://www.bohemiancoding.com/sketch -->
    <title>turn-right</title>
    <desc>Created with sketchtool.</desc>
    <defs></defs>
    <g id="Icons" stroke="none" stroke-width="1" fill="none" fill-rule="evenodd">
        <g id="Operation" transform="translate(-236.000000, -236.000000)" fill="#000000">
            <g id="arrow/turn-right" transform="translate(236.000000, 236.000000)">
                <path d="M15.4000075,7.409 L15.4000075,7.409 C15.0680075,7.409 14.8000075,7.677 14.7990075,8.009 C14.7950075,11.755 11.7450075,14.801 8.00000752,14.801 L7.99100752,14.801 C4.24100752,14.795 1.19500752,11.74 1.20000752,7.991 C1.20200752,6.175 1.91100752,4.468 3.19700752,3.185 C4.48100752,1.905 6.18600752,1.2 7.99900752,1.2 L8.00800752,1.2 C10.0240075,1.202 11.8790075,2.078 13.1720075,3.603 L10.9040075,3.599 L10.9030075,3.599 C10.5720075,3.599 10.3040075,3.867 10.3030075,4.199 C10.3030075,4.53 10.5710075,4.799 10.9020075,4.8 L14.3520075,4.804 L14.3530075,4.804 C14.6840075,4.804 14.9530075,4.536 14.9530075,4.205 L14.9580075,0.756 C14.9580075,0.424 14.6900075,0.155 14.3580075,0.155 L14.3580075,0.155 C14.0260075,0.155 13.7580075,0.423 13.7570075,0.754 L13.7550075,2.445 C12.2570075,0.884 10.2120075,0.002 8.01000752,0 L7.99900752,0 C5.86600752,0 3.86000752,0.829 2.35000752,2.336 C0.837007523,3.845 0.0020075225,5.853 7.52250392e-06,7.99 C-0.0059924775,12.4 3.57800752,15.994 7.99000752,16 L7.99900752,16 C12.4060075,16 15.9940075,12.418 16.0000075,8.01 C16.0000075,7.679 15.7320075,7.409 15.4000075,7.409 L15.4000075,7.409 Z" id="Shape"></path>
            </g>
        </g>
    </g>
</svg>

<svg xmlns="http://www.w3.org/2000/svg" viewBox="0 0 16 16">
    <path d="M15.4 7.409a.6.6 0 0 0-.601.6A6.808 6.808 0 0 1 8 14.801h-.009A6.81 6.81 0 0 1 3.197 3.185 6.758 6.758 0 0 1 7.999 1.2h.009a6.73 6.73 0 0 1 5.164 2.403l-2.268-.004h-.001a.6.6 0 0 0-.001 1.201l3.45.004h.001a.6.6 0 0 0 .6-.599l.005-3.449a.6.6 0 1 0-1.201-.002l-.002 1.691A7.919 7.919 0 0 0 8.01 0h-.011A7.944 7.944 0 0 0 2.35 2.336 8.01 8.01 0 0 0 7.99 16h.009A8.01 8.01 0 0 0 16 8.01a.6.6 0 0 0-.6-.601z"/>
</svg>
